X:1
T:Heaven Is Mine
T:Heaven Is Mine
T:William Howard Doane
T:Edmond Hez Swem, 1886
T:Public Domain Courtesy of the Cyber Hymnal™
C:William Howard Doane
Z:Public Domain
Z:Courtesy of the Cyber Hymnal™
%%score ( 1 2 ) ( 3 4 )
L:1/8
Q:1/4=145
M:3/2
K:Eb
V:1 treble 
V:2 treble 
V:3 bass 
V:4 bass 
V:1
 E2 [EG]2 [EG]2 | [EG]6 E2 [EG]2 [GB]2 | [GB]8 [Ac]2 [Ae]2 | [GB]8 [EG]2 E2 | %4
w: 1.~The wel- come|news my soul makes|glad, Heav’n is|mine, Heav’n is|
w: 2.~My wea- ry|soul is com- fort-|ed, Heav’n is|mine, Heav’n is|
w: 3.~My bur- dens|fall, my cares are|gone, Heav’n is|mine, Heav’n is|
w: 4.~In hours of|day, in dreams of|night, Heav’n is|mine, Heav’n is|
 [DF]6 E2 [EG]2 [EG]2 | [EG]6 E2 [EG]2 [GB]2 | [Ac]8 [GB]2 [EG]2 | [DF]8 [DA]2 [DG]2 | %8
w: mine; If thou wilt|let my Sav- ior|in, Heav’n is|thine, Heav’n is|
w: mine; When thy soul|clings to Christ my|Lord, Heav’n is|thine, Heav’n is|
w: mine; When thou wilt|let Christ bear thy|sins, Heav’n is|thine, Heav’n is|
w: mine; O Chris- tian,|watch, and pray and|praise; Heav’n is|thine, Heav’n is|
 !fermata!E6 ||"^Refrain" [Ge]2 [Fd]2 [Fd]2 | [Fd]6 [Ac]2 [GB]2 [FA]2 | [EG]8 [EA]2 [EA]2 | %12
w: thine.||||
w: thine.||||
w: thine.||||
w: thine.||||
 [Ec]8 [EB]2 [EG]2 | [DF]6 [DF]2 [EG]2 [GB]2 | [GB]6 [EB]2 [Ec]2 [Ee]2 | [Ee]8 [Ee]2 [Ec]2 | %16
w: ||||
w: ||||
w: ||||
w: ||||
"^riten." (B6 G2) [EG]2 [DF]2 | E4 |] %18
w: ||
w: ||
w: ||
w: ||
V:2
 E2 x4 | x6 E2 x4 | x12 | x10 E2 | x6 E2 x4 | x6 E2 x4 | x12 | x12 | E6 || x6 | x12 | x12 | x12 | %13
 x12 | x12 | x12 | E8 x4 | E4 |] %18
V:3
 [E,G,]2 [E,B,]2 [E,B,]2 | [E,B,]6 [E,G,]2 [E,B,]2 [E,E]2 | [E,E]8 [A,,E]2 [C,E]2 | %3
w: |||
 [E,E]8 [E,B,]2 [G,B,]2 | B,6 [E,G,]2 [E,B,]2 [E,B,]2 | [E,B,]6 [E,G,]2 [E,B,]2 [E,E]2 | %6
w: |’Tis * * *||
 [A,,E]8 [E,E]2 [E,B,]2 | [B,,B,]8 [B,,B,]2 [B,,A,]2 | !fermata![E,G,]6 || %9
w: |||
 [E,B,]2 [B,,B,]2 [B,,B,]2 | [B,,B,]6 [B,,B,]2 [B,,B,]2 [B,,B,]2 | [E,B,]8 [C,A,]2 [C,A,]2 | %12
w: Heav’n on earth|to think, to know,|Though I want,|
 [A,,A,]8 [E,G,]2 [E,B,]2 | [B,,B,]6 [B,,B,]2 [E,B,]2 [E,E]2 | [E,E]6 [E,G,]2 [A,,A,]2 [A,,C]2 | %15
w: though I roam,|My man- sion’s made,|my Mas- ter waits,|
 [A,,C]8 [A,,C]2 [A,,A,]2 | (G,6 B,2) [B,,B,]2 [B,,A,]2 | [E,G,]4 |] %18
w: Heav’n is mine,|Heav’n * is home.||
V:4
 x6 | x12 | x12 | x12 | B,6 x6 | x12 | x12 | x12 | x6 || x6 | x12 | x12 | x12 | x12 | x12 | x12 | %16
 B,,8 x4 | x4 |] %18

